public/static/lp/cardoc.svg

<svg width="821" height="191" viewBox="0 0 821 191" fill="none" xmlns="http://www.w3.org/2000/svg">
<g clip-path="url(#clip0_10799_323)">
<path d="M69.8711 79.6033C83.6308 79.6033 95.6632 87.1801 102.335 98.4381L129.943 82.0266C117.762 60.9525 95.4249 46.811 69.8711 46.811C31.2722 46.811 0 79.0204 0 118.745C0 158.47 31.2722 190.71 69.8711 190.71C95.4249 190.71 117.762 176.569 129.943 155.495L102.335 139.083C95.6632 150.372 83.6308 157.918 69.8711 157.918C48.874 157.918 31.8381 140.372 31.8381 118.745C31.8381 97.119 48.874 79.5726 69.8711 79.5726V79.6033Z" fill="#979AAD"/>
<path d="M760.934 157.918C739.936 157.918 722.901 140.372 722.901 118.746C722.901 97.1194 739.936 79.5729 760.934 79.5729C774.693 79.5729 786.726 87.1498 793.397 98.4077L821.006 81.9963C808.825 60.9221 786.487 46.7806 760.934 46.7806C722.364 46.7806 691.062 78.9901 691.062 118.746C691.062 158.501 722.335 190.711 760.934 190.711C786.487 190.711 808.825 176.569 821.006 155.495L793.397 139.084C786.726 150.372 774.693 157.918 760.934 157.918Z" fill="#979AAD"/>
<path d="M331.692 50.4614H302.028V187.06H331.692V118.316C331.692 78.6523 371.899 79.6033 371.899 79.6033V46.811C355.37 46.811 341.789 52.8848 331.692 62.9771V50.4921V50.4614Z" fill="#979AAD"/>
<path d="M604.923 46.811C566.354 46.811 535.052 79.0205 535.052 118.776C535.052 158.532 566.324 190.741 604.923 190.741C643.522 190.741 674.794 158.532 674.794 118.776C674.794 79.0205 643.522 46.811 604.923 46.811ZM641.705 135.801C641.705 138.746 640.186 141.476 637.714 142.948L608.944 160.065C606.472 161.538 603.404 161.538 600.932 160.065L572.161 142.948C569.689 141.476 568.17 138.746 568.17 135.801V101.567C568.17 98.6222 569.689 95.8921 572.161 94.4196L600.932 77.3026C603.404 75.8302 606.472 75.8302 608.944 77.3026L637.714 94.4196C640.186 95.8921 641.705 98.6222 641.705 101.567V135.801Z" fill="#979AAD"/>
<path d="M245.949 50.4618V61.8732C236.031 52.9159 223.165 47.3943 207.916 46.8114C169.347 45.339 138.045 79.0209 138.045 118.776C138.045 158.532 169.347 192.214 207.916 190.742C223.165 190.159 236.002 184.637 245.949 175.68V187.091H277.073V50.4618H245.949ZM207.916 157.919C186.919 157.919 169.883 140.372 169.883 118.746C169.883 97.1195 186.919 79.573 207.916 79.573C228.913 79.573 245.949 97.1195 245.949 118.746C245.949 140.372 228.913 157.919 207.916 157.919Z" fill="#979AAD"/>
<path d="M485.314 0.000244141V61.873C475.396 52.9157 462.53 47.3941 447.281 46.8113C408.712 45.3388 377.41 79.0207 377.41 118.776C377.41 158.532 408.712 192.214 447.281 190.741C462.53 190.159 475.366 184.637 485.314 175.68V187.091H516.437V0.000244141H485.314ZM447.281 157.857C426.284 157.857 409.248 140.311 409.248 118.684C409.248 97.0579 426.284 79.5115 447.281 79.5115C468.278 79.5115 485.314 97.0579 485.314 118.684C485.314 140.311 468.278 157.857 447.281 157.857V157.857Z" fill="#979AAD"/>
</g>
<defs>
<clipPath id="clip0_10799_323">
<rect width="821" height="190.772" fill="white"/>
</clipPath>
</defs>
</svg>

<svg xmlns="http://www.w3.org/2000/svg" width="821" height="191" fill="none"><g fill="#979AAD" clip-path="url(#a)"><path d="M69.871 79.603c13.76 0 25.792 7.577 32.464 18.835l27.608-16.411C117.762 60.952 95.425 46.81 69.871 46.81 31.272 46.811 0 79.021 0 118.745c0 39.725 31.272 71.965 69.871 71.965 25.554 0 47.891-14.141 60.072-35.215l-27.608-16.412c-6.672 11.289-18.704 18.835-32.464 18.835-20.997 0-38.033-17.546-38.033-39.173 0-21.626 17.036-39.172 38.033-39.172v.03ZM760.934 157.918c-20.998 0-38.033-17.546-38.033-39.172 0-21.627 17.035-39.173 38.033-39.173 13.759 0 25.792 7.577 32.463 18.835l27.609-16.412c-12.181-21.074-34.519-35.215-60.072-35.215-38.57 0-69.872 32.21-69.872 71.965s31.273 71.965 69.872 71.965c25.553 0 47.891-14.142 60.072-35.216l-27.609-16.411c-6.671 11.288-18.704 18.834-32.463 18.834ZM331.692 50.461h-29.664V187.06h29.664v-68.744c0-39.664 40.207-38.713 40.207-38.713V46.811c-16.529 0-30.11 6.074-40.207 16.166V50.462ZM604.923 46.811c-38.569 0-69.871 32.21-69.871 71.965 0 39.756 31.272 71.965 69.871 71.965s69.871-32.209 69.871-71.965c0-39.755-31.272-71.965-69.871-71.965Zm36.782 88.99c0 2.945-1.519 5.675-3.991 7.147l-28.77 17.117a7.816 7.816 0 0 1-8.012 0l-28.771-17.117c-2.472-1.472-3.991-4.202-3.991-7.147v-34.234c0-2.945 1.519-5.675 3.991-7.147l28.771-17.117a7.818 7.818 0 0 1 8.012 0l28.77 17.117c2.472 1.472 3.991 4.202 3.991 7.147v34.234ZM245.949 50.462v11.411c-9.918-8.957-22.784-14.479-38.033-15.062-38.569-1.472-69.871 32.21-69.871 71.965 0 39.756 31.302 73.438 69.871 71.966 15.249-.583 28.086-6.105 38.033-15.062v11.411h31.124V50.461h-31.124Zm-38.033 107.457c-20.997 0-38.033-17.547-38.033-39.173s17.036-39.173 38.033-39.173 38.033 17.547 38.033 39.173-17.036 39.173-38.033 39.173ZM485.314 0v61.873c-9.918-8.957-22.784-14.479-38.033-15.062-38.569-1.472-69.871 32.21-69.871 71.965 0 39.756 31.302 73.438 69.871 71.965 15.249-.582 28.085-6.104 38.033-15.061v11.411h31.123V.001h-31.123Zm-38.033 157.857c-20.997 0-38.033-17.546-38.033-39.173 0-21.626 17.036-39.172 38.033-39.172s38.033 17.546 38.033 39.172c0 21.627-17.036 39.173-38.033 39.173Z"/></g><defs><clipPath id="a"><path fill="#fff" d="M0 0h821v190.772H0z"/></clipPath></defs></svg>
